X:1
T:The Jealous Lover (4)
M:3/4
L:1/4
K:C
 C| E2 C| G2 E| F A2| z2 A/2A/2| G2 E| C D E| D2 C| E2 C| G2 E| F A2|\
 z2 A| G- F E| G- F D| C2||
